X: 3223
M: 6/8
L: 1/8
K: A
[|\
vcdB uA2uE | F2E A2d |\
cdB A2A | cee e2d |\
cdB A2E | F2E A2E |\
EAA A2 H|]\
d |:\
c2c cdB | c2d efg |\
[1 a2g f2e | edc Bed :|\
[2 a2f b2a | gaf e2"_D.C."d |]


